packages/dnb-eufemia/assets/icons/stocks_medium.svg

<svg width="24" height="24" viewBox="0 0 24 24" fill="none" xmlns="http://www.w3.org/2000/svg">
<path d="M1.49999 0.749994C1.49999 0.335784 1.1642 0 0.749994 0C0.335784 0 0 0.335784 0 0.749994H1.49999ZM0.749994 23.2498H0C0 23.664 0.335784 23.9998 0.749994 23.9998L0.749994 23.2498ZM23.2498 23.9998C23.664 23.9998 23.9998 23.664 23.9998 23.2498C23.9998 22.8356 23.664 22.4998 23.2498 22.4998V23.9998ZM4.41566 14.3072V13.5572C4.19056 13.5572 3.97736 13.6583 3.83492 13.8326L4.41566 14.3072ZM6.86372 14.3072V15.0572C7.11356 15.0572 7.34701 14.9327 7.48631 14.7253L6.86372 14.3072ZM8.11241 12.4481L8.32376 11.7285C8.00978 11.6362 7.67227 11.7582 7.48981 12.0299L8.11241 12.4481ZM9.89188 12.9707L10.5507 12.6122C10.4554 12.4372 10.2944 12.3073 10.1032 12.2511L9.89188 12.9707ZM11.8292 16.5307L11.1704 16.8892C11.3113 17.1481 11.5908 17.3005 11.8848 17.2786C12.1787 17.2568 12.4326 17.0648 12.5337 16.7879L11.8292 16.5307ZM12.6085 14.3961L12.2614 13.7313C12.0956 13.8178 11.9681 13.9632 11.904 14.1389L12.6085 14.3961ZM13.7156 13.8181L14.0627 14.4829C14.2347 14.3931 14.3653 14.2401 14.4268 14.0561L13.7156 13.8181ZM18.0609 10.646L17.3288 10.8088C17.3929 11.0974 17.6206 11.3213 17.9101 11.3807L18.0609 10.646ZM19.104 10.8601L19.8104 10.6081C19.7223 10.3611 19.5116 10.1781 19.2547 10.1254L19.104 10.8601ZM20.1998 13.9317L19.4934 14.1837C19.5946 14.4674 19.8558 14.663 20.1565 14.6805C20.4572 14.6979 20.7391 14.5337 20.8724 14.2636L20.1998 13.9317ZM23.9224 8.08178C24.1057 7.71033 23.9531 7.26063 23.5817 7.07736C23.2102 6.89408 22.7605 7.04664 22.5772 7.4181L23.9224 8.08178ZM4.41566 15.0572H6.86372V13.5572H4.41566V15.0572ZM7.48631 14.7253L8.735 12.8662L7.48981 12.0299L6.24112 13.889L7.48631 14.7253ZM7.90105 13.1677L9.68053 13.6903L10.1032 12.2511L8.32376 11.7285L7.90105 13.1677ZM9.23312 13.3292L11.1704 16.8892L12.488 16.1722L10.5507 12.6122L9.23312 13.3292ZM12.5337 16.7879L13.313 14.6533L11.904 14.1389L11.1247 16.2735L12.5337 16.7879ZM12.9556 15.0609L14.0627 14.4829L13.3685 13.1533L12.2614 13.7313L12.9556 15.0609ZM17.9101 11.3807L18.9533 11.5948L19.2547 10.1254L18.2116 9.91135L17.9101 11.3807ZM18.3976 11.1121L19.4934 14.1837L20.9062 13.6797L19.8104 10.6081L18.3976 11.1121ZM20.8724 14.2636L23.9224 8.08178L22.5772 7.4181L19.5272 13.5999L20.8724 14.2636ZM17.4999 3.24998C17.4999 3.66419 17.1641 3.99997 16.7499 3.99997V5.49996C17.9925 5.49996 18.9999 4.49261 18.9999 3.24998H17.4999ZM16.7499 3.99997C16.3357 3.99997 15.9999 3.66419 15.9999 3.24998H14.4999C14.4999 4.49261 15.5072 5.49996 16.7499 5.49996V3.99997ZM15.9999 3.24998C15.9999 2.83576 16.3357 2.49998 16.7499 2.49998V0.999992C15.5072 0.999992 14.4999 2.00734 14.4999 3.24998H15.9999ZM16.7499 2.49998C17.1641 2.49998 17.4999 2.83576 17.4999 3.24998H18.9999C18.9999 2.00734 17.9925 0.999992 16.7499 0.999992V2.49998ZM0 0.749994V18.7928H1.49999V0.749994H0ZM0 18.7928V23.2498H1.49999V18.7928H0ZM1.33074 19.2674L4.9964 14.7818L3.83492 13.8326L0.169251 18.3182L1.33074 19.2674ZM0.749994 23.9998H16.7499V22.4998H0.749994V23.9998ZM16.7499 23.9998H23.2498V22.4998H16.7499V23.9998ZM15.9999 4.74996V23.2498H17.4999V4.74996H15.9999ZM14.4268 14.0561L17.4611 4.98795L16.0386 4.51198L13.0044 13.5801L14.4268 14.0561ZM18.793 10.4832L17.482 4.58718L16.0178 4.91275L17.3288 10.8088L18.793 10.4832Z" fill="black"/>
</svg>

<svg width="24" height="24" viewBox="0 0 24 24" fill="none" xmlns="http://www.w3.org/2000/svg"><path d="M1.5.75a.75.75 0 0 0-1.5 0h1.5Zm-.75 22.5H0c0 .414.336.75.75.75v-.75Zm22.5.75a.75.75 0 0 0 0-1.5V24ZM4.416 14.307v-.75a.75.75 0 0 0-.581.276l.58.474Zm2.448 0v.75a.75.75 0 0 0 .622-.332l-.622-.418Zm1.248-1.859.212-.72a.75.75 0 0 0-.834.302l.622.418Zm1.78.523.659-.359a.75.75 0 0 0-.448-.36l-.211.719Zm1.937 3.56-.659.358a.75.75 0 0 0 1.364-.101l-.705-.257Zm.78-2.135-.348-.665a.75.75 0 0 0-.357.408l.704.257Zm1.107-.578.347.665a.75.75 0 0 0 .364-.427l-.711-.238Zm4.345-3.172-.732.163a.75.75 0 0 0 .581.572l.15-.735Zm1.043.214.706-.252a.75.75 0 0 0-.555-.483l-.151.735Zm1.096 3.072-.707.252a.75.75 0 0 0 1.38.08l-.673-.332Zm3.722-5.85a.75.75 0 1 0-1.345-.664l1.345.664ZM4.416 15.057h2.448v-1.5H4.416v1.5Zm3.07-.332 1.249-1.859-1.245-.836-1.249 1.859 1.245.836Zm.415-1.557 1.78.522.422-1.439-1.78-.522-.422 1.439Zm1.332.161 1.937 3.56 1.318-.717-1.937-3.56-1.318.717Zm3.3 3.459.78-2.135-1.409-.514-.78 2.134 1.41.515Zm.423-1.727 1.107-.578-.695-1.33-1.107.578.695 1.33Zm4.954-3.68 1.043.214.302-1.47-1.043-.214-.302 1.47Zm.488-.269 1.095 3.072 1.413-.504-1.096-3.072-1.412.504Zm2.474 3.152 3.05-6.182-1.345-.664-3.05 6.182 1.345.664ZM17.5 3.25a.75.75 0 0 1-.75.75v1.5A2.25 2.25 0 0 0 19 3.25h-1.5Zm-.75.75a.75.75 0 0 1-.75-.75h-1.5a2.25 2.25 0 0 0 2.25 2.25V4ZM16 3.25a.75.75 0 0 1 .75-.75V1a2.25 2.25 0 0 0-2.25 2.25H16Zm.75-.75a.75.75 0 0 1 .75.75H19A2.25 2.25 0 0 0 16.75 1v1.5ZM0 .75v18.043h1.5V.75H0Zm0 18.043v4.457h1.5v-4.457H0Zm1.33.474 3.666-4.485-1.161-.95-3.666 4.486 1.162.95ZM.75 24h16v-1.5h-16V24Zm16 0h6.5v-1.5h-6.5V24ZM16 4.75v18.5h1.5V4.75H16Zm-1.573 9.306 3.034-9.068-1.422-.476-3.035 9.068 1.423.476Zm4.366-3.573-1.311-5.896-1.464.326 1.31 5.896 1.465-.326Z" fill="#000"/></svg>
